packages/katcn/src/icons/svg/key.svg

<svg width="24" height="24" viewBox="0 0 24 24" fill="none" xmlns="http://www.w3.org/2000/svg">
<path d="M22.2878 7.58438C20.6124 5.32604 18.6413 3.26407 16.3745 1.69306C14.8962 0.61298 12.8266 0.809358 11.4468 2.184L8.09593 5.52241C6.81472 6.79887 6.61761 8.86083 7.60316 10.3337C7.70172 10.4318 7.80027 10.6282 7.99738 10.7264L1.78844 16.9123C1.29566 17.4032 1 18.0906 1 18.8761V22.0181C1 22.3127 1.09855 22.5091 1.29566 22.7054C1.49277 22.9018 1.68988 23 1.98555 23H5.1393C5.92773 23 6.61761 22.7054 7.11039 22.2145L13.3193 16.0286C13.5164 16.1268 13.615 16.225 13.8121 16.3232C15.2904 17.3051 17.3601 17.1087 18.6413 15.8322L21.9921 12.4938C23.1748 11.1192 23.3719 9.05721 22.2878 7.58438ZM20.4153 11.1192L17.0644 14.4576C16.3745 15.1449 15.389 15.2431 14.6991 14.7522C14.3049 14.4576 14.0092 14.2612 13.615 13.9666C13.2208 13.6721 12.6294 13.6721 12.3338 14.0648L5.53351 20.8398C5.3364 21.0362 5.13929 21.1344 4.94219 21.1344H2.77398V18.9743C2.77398 18.7779 2.87254 18.5815 3.06965 18.3851L9.86992 11.6101C10.2641 11.2174 10.2641 10.7264 9.96847 10.3337C9.77136 9.94091 9.4757 9.54815 9.27859 9.1554C8.78582 8.46808 8.88437 7.48619 9.57425 6.89706L12.9251 3.55864C13.2208 3.16589 13.7135 2.96951 14.2063 2.96951C14.6005 2.96951 14.8962 3.0677 15.1919 3.26407C17.3601 4.73691 19.1341 6.60249 20.6124 8.66445C21.2037 9.44996 21.1051 10.4318 20.4153 11.1192Z" fill="black"/>
<path d="M15.5263 7C15.1053 7 14.7895 7.21429 14.4737 7.42857C13.8421 8.07143 13.8421 9.03571 14.4737 9.57143C14.7895 9.89286 15.1053 10 15.5263 10C15.9474 10 16.2632 9.89286 16.5789 9.57143C16.8947 9.25 17 8.92857 17 8.5C17 8.07143 16.8947 7.75 16.5789 7.42857C16.3684 7.10714 15.9474 7 15.5263 7Z" fill="black"/>
</svg>

<svg xmlns="http://www.w3.org/2000/svg" fill="none" viewBox="0 0 24 24"><path fill="#000" d="M22.288 7.584c-1.676-2.258-3.647-4.32-5.913-5.89-1.479-1.081-3.548-.885-4.928.49L8.096 5.522C6.815 6.8 6.618 8.861 7.603 10.334c.099.098.197.294.394.392l-6.209 6.186C1.296 17.403 1 18.091 1 18.876v3.142c0 .295.099.491.296.687s.394.295.69.295h3.153c.789 0 1.479-.295 1.971-.785l6.21-6.186c.196.098.295.196.492.294 1.478.982 3.548.786 4.83-.49l3.35-3.34c1.183-1.374 1.38-3.436.296-4.909m-1.873 3.535-3.35 3.339c-.69.687-1.676.785-2.366.294-.394-.294-.69-.49-1.084-.785s-.986-.295-1.281.098l-6.8 6.775q-.297.294-.592.294H2.774v-2.16q0-.295.296-.589l6.8-6.775c.394-.393.394-.884.098-1.276-.197-.393-.492-.786-.69-1.179a1.68 1.68 0 0 1 .296-2.258l3.351-3.338c.296-.393.788-.59 1.281-.59.395 0 .69.099.986.295 2.168 1.473 3.942 3.338 5.42 5.4.592.786.493 1.768-.197 2.455"/><path fill="#000" d="M15.526 7c-.42 0-.736.214-1.052.429-.632.642-.632 1.607 0 2.142.316.322.631.429 1.052.429s.737-.107 1.053-.429C16.895 9.25 17 8.93 17 8.5s-.105-.75-.421-1.071c-.21-.322-.632-.429-1.053-.429"/></svg>
